!!!OTL: Yongjun Huagunge
!!!ARE: Asia, China,ÿHenan Xiayiluyi
!! IV, 118
!!!SCT: C1939
!!!YEM: Copyright 1995, estate of Helmut Schaffrath.
**kern
*ICvox
*Ivox
*M2/4
*k[b-]
*F:
{8f
16f
16d
8.c
16d
=1
8f
16f
16d
4c
=2
8cc
8ff
8cc
8a
=3
8.cc
16a
4g}
=4
{8g
8a
8cc
8dd
=5
8a
8g
4f
=6
8.g
16a
8f
8d
=7
8.f
16d
4c}
=8
{8f
16f
16d
8c
8d
=9
8f
16f
16d
4c
=10
8cc
8ff
8cc
8a
=11
8.g
16a
4cc}
=12
{8f
16f
16d
8.c
16d
=13
8f
16f
16d
4c
=14
8cc
16cc
16a
8g
8f
=15
8d
8f
4c}
=16
{8f
8f
8d
8f
=17
2g}
=18
{8g
8a
8.cc
16dd
=19
8a
8g
4f
=20
8g
8a
8d
8f
=21
8g
8g
8f
16f
16d
=22
2c}
==
!!!AGN: Xiaodiao, Salajin diao
!!!AMT: simple duple
!!!AIN: vox
!!!EED: Helmut Schaffrath
!!!EEV: 1.0
*-
